X: 13
T: A Woman Stands Among the Trees
N: Derived from pawnee13.krn
O: Oklahoma, U.S.A.
N: from Pawnee Music by Frances Densmore, 1926
Z: transcribed to **kern format by David Huron, August 2000
C: Skidi and Chaui Bands, 1919
L: 1/8
M: 3/4
Q: 1/4=88
K: D clef=bass
%%linebreak <none>
(3E E E E E (D !fermata!B,)[M:2/4] | 
E< E D (D/ B,/)[M:3/4] | 
B, B, B, B,z2[M:2/4] | 
B, B,/ B,/ E E | 
E E (D/ B,3/) | 
E< E D (D/ B,/)[M:3/4] | 
B, B, (D/> B,/) B, (B,/> A,/) !fermata!F,[M:3/8] | 
(D/> B,/) B, D/ B,/[M:3/4] | 
F, F,- F, (F,/> E,/) (F, E,) | 
B,< B, F, (F,/ E,/) E, E,[M:2/4] | 
E,2D,2 | 
E, E, D, D, | 
B,, B,, B,, B,, | 
B,,4 | 
B,4 | 
(3D D DB,2[M:3/4] | 
E D E E (D B,) |]  



